SVG_Azure_Grouped/Office365/O365 - List.svg

<?xml version="1.0" encoding="UTF-8" standalone="no"?>
<!-- Generated by Microsoft Visio, SVG Export O365 - List.svg Page-1 -->

<svg
   xmlns:dc="http://purl.org/dc/elements/1.1/"
   xmlns:cc="http://creativecommons.org/ns#"
   xmlns:rdf="http://www.w3.org/1999/02/22-rdf-syntax-ns#"
   xmlns:svg="http://www.w3.org/2000/svg"
   xmlns="http://www.w3.org/2000/svg"
   xmlns:sodipodi="http://sodipodi.sourceforge.net/DTD/sodipodi-0.dtd"
   xmlns:inkscape="http://www.inkscape.org/namespaces/inkscape"
   width="0.7874046in"
   height="0.7874018in"
   viewBox="0 0 56.69319 56.693011"
   xml:space="preserve"
   class="st7"
   version="1.1"
   id="svg87"
   sodipodi:docname="O365 - List.svg"
   style="font-size:12px;overflow:visible;color-interpolation-filters:sRGB;fill:none;fill-rule:evenodd;stroke-linecap:square;stroke-miterlimit:3"
   inkscape:version="0.92.5 (2060ec1f9f, 2020-04-08)"><metadata
   id="metadata91"><rdf:RDF><cc:Work
       rdf:about=""><dc:format>image/svg+xml</dc:format><dc:type
         rdf:resource="http://purl.org/dc/dcmitype/StillImage" /></cc:Work></rdf:RDF></metadata><sodipodi:namedview
   pagecolor="#ffffff"
   bordercolor="#666666"
   borderopacity="1"
   objecttolerance="10"
   gridtolerance="10"
   guidetolerance="10"
   inkscape:pageopacity="0"
   inkscape:pageshadow="2"
   inkscape:window-width="640"
   inkscape:window-height="480"
   id="namedview89"
   showgrid="false"
   inkscape:zoom="1.6115252"
   inkscape:cx="37.795231"
   inkscape:cy="27.863049"
   inkscape:window-x="0"
   inkscape:window-y="0"
   inkscape:window-maximized="0"
   inkscape:current-layer="svg87" />
	<style
   type="text/css"
   id="style2">
	<![CDATA[
		.st1 {fill:#fee200;stroke:none;stroke-linecap:butt;stroke-width:19.125}
		.st2 {fill:url(#grad0-7);stroke:none;stroke-linecap:butt;stroke-width:19.125}
		.st3 {fill:url(#grad0-11);stroke:none;stroke-linecap:butt;stroke-width:19.125}
		.st4 {fill:url(#grad0-15);stroke:none;stroke-linecap:butt;stroke-width:19.125}
		.st5 {fill:url(#grad0-19);stroke:none;stroke-linecap:butt;stroke-width:19.125}
		.st6 {fill:url(#grad0-23);stroke:none;stroke-linecap:butt;stroke-width:19.125}
		.st7 {fill:none;fill-rule:evenodd;font-size:12px;overflow:visible;stroke-linecap:square;stroke-miterlimit:3}
	]]>
	</style>

	<defs
   id="Patterns_And_Gradients">
		<linearGradient
   id="grad0-7"
   x1="0"
   y1="81.206085"
   x2="19.197656"
   y2="81.206085"
   gradientTransform="scale(0.9141741,1.0938835)"
   gradientUnits="userSpaceOnUse">
			<stop
   offset="0"
   stop-color="#e25a01"
   stop-opacity="1"
   id="stop4" />
			<stop
   offset="0.61"
   stop-color="#e15801"
   stop-opacity="1"
   id="stop6" />
			<stop
   offset="0.88"
   stop-color="#e05101"
   stop-opacity="1"
   id="stop8" />
			<stop
   offset="1"
   stop-color="#de4a01"
   stop-opacity="1"
   id="stop10" />
		</linearGradient>
		<linearGradient
   id="grad0-11"
   x1="0"
   y1="141.30223"
   x2="27.642077"
   y2="141.30223"
   gradientTransform="scale(1.5382346,0.65009588)"
   gradientUnits="userSpaceOnUse">
			<stop
   offset="0"
   stop-color="#f18c0a"
   stop-opacity="1"
   id="stop13" />
			<stop
   offset="0.435"
   stop-color="#f0880a"
   stop-opacity="1"
   id="stop15" />
			<stop
   offset="0.87"
   stop-color="#ec7c0a"
   stop-opacity="1"
   id="stop17" />
			<stop
   offset="1"
   stop-color="#eb770a"
   stop-opacity="1"
   id="stop19" />
		</linearGradient>
		<linearGradient
   id="grad0-15"
   x1="0"
   y1="152.90138"
   x2="27.747915"
   y2="152.90138"
   gradientTransform="scale(1.6448083,0.6079736)"
   gradientUnits="userSpaceOnUse">
			<stop
   offset="0"
   stop-color="#d83b01"
   stop-opacity="1"
   id="stop22" />
			<stop
   offset="0.47"
   stop-color="#d63701"
   stop-opacity="1"
   id="stop24" />
			<stop
   offset="0.935"
   stop-color="#ce2b01"
   stop-opacity="1"
   id="stop26" />
			<stop
   offset="1"
   stop-color="#cd2901"
   stop-opacity="1"
   id="stop28" />
		</linearGradient>
		<linearGradient
   id="grad0-19"
   x1="0"
   y1="78.763299"
   x2="16.360663"
   y2="78.763299"
   gradientTransform="scale(0.86610181,1.1545987)"
   gradientUnits="userSpaceOnUse">
			<stop
   offset="0"
   stop-color="#bf3207"
   stop-opacity="1"
   id="stop31" />
			<stop
   offset="0.47"
   stop-color="#bb3207"
   stop-opacity="1"
   id="stop33" />
			<stop
   offset="0.935"
   stop-color="#af3007"
   stop-opacity="1"
   id="stop35" />
			<stop
   offset="1"
   stop-color="#ad3007"
   stop-opacity="1"
   id="stop37" />
		</linearGradient>
		<linearGradient
   id="grad0-23"
   x1="0"
   y1="169.92129"
   x2="25.170234"
   y2="169.92129"
   gradientTransform="scale(1.7763045,0.56296655)"
   gradientUnits="userSpaceOnUse">
			<stop
   offset="0"
   stop-color="#854a81"
   stop-opacity="1"
   id="stop40" />
			<stop
   offset="0.48"
   stop-color="#82497e"
   stop-opacity="1"
   id="stop42" />
			<stop
   offset="0.81"
   stop-color="#794475"
   stop-opacity="1"
   id="stop44" />
			<stop
   offset="1"
   stop-color="#703f6c"
   stop-opacity="1"
   id="stop46" />
		</linearGradient>
	</defs>
	<g
   id="g85"
   transform="translate(-19.125,-19.1213)">
		<title
   id="title50">Page-1</title>
		<g
   id="group20886-1"
   transform="translate(19.125,-34.0157)">
			<title
   id="title52">O365 - List.20886</title>
			<g
   id="shape20887-2"
   transform="translate(0,-36.023)">
				<title
   id="title54">Sheet.20887</title>
				<path
   d="M 0,103.34 14.17,89.16 h 40.27 c 1.25,0 2.25,1.01 2.25,2.26 v 11.92 l -28.34,6.49 z"
   class="st1"
   id="path56"
   inkscape:connector-curvature="0"
   style="fill:#fee200;stroke:none;stroke-width:19.125;stroke-linecap:butt" />
			</g>
			<g
   id="shape20888-4"
   transform="translate(0,-21.5132)">
				<title
   id="title59">Sheet.20888</title>
				<path
   d="M 17.55,102.58 0,109.83 v -21 h 14.17 z"
   class="st2"
   id="path61"
   inkscape:connector-curvature="0"
   style="fill:url(#grad0-7);stroke:none;stroke-width:19.125;stroke-linecap:butt" />
			</g>
			<g
   id="shape20889-8"
   transform="translate(14.1732,-24.5498)">
				<title
   id="title64">Sheet.20889</title>
				<path
   d="M 42.52,106.21 V 91.86 H 0 v 14.51 l 19.32,3.46 z"
   class="st3"
   id="path66"
   inkscape:connector-curvature="0"
   style="fill:url(#grad0-11);stroke:none;stroke-width:19.125;stroke-linecap:butt" />
			</g>
			<g
   id="shape20890-12"
   transform="translate(11.0516,-11.4732)">
				<title
   id="title69">Sheet.20890</title>
				<path
   d="M 45.64,107.13 V 92.96 H 0 v 14.26 l 28.09,2.61 z"
   class="st4"
   id="path71"
   inkscape:connector-curvature="0"
   style="fill:url(#grad0-15);stroke:none;stroke-width:19.125;stroke-linecap:butt" />
			</g>
			<g
   id="shape20891-16"
   transform="translate(0,-9.44823)">
				<title
   id="title74">Sheet.20891</title>
				<path
   d="M 14.17,105.11 0,109.83 V 90.94 h 14.17 z"
   class="st5"
   id="path76"
   inkscape:connector-curvature="0"
   style="fill:url(#grad0-19);stroke:none;stroke-width:19.125;stroke-linecap:butt" />
			</g>
			<g
   id="shape20892-20"
   transform="translate(11.9799)">
				<title
   id="title79">Sheet.20892</title>
				<path
   d="M 2.19,95.66 0,102.41 2.19,109.83 H 30.54 L 44.71,95.66 Z"
   class="st6"
   id="path81"
   inkscape:connector-curvature="0"
   style="fill:url(#grad0-23);stroke:none;stroke-width:19.125;stroke-linecap:butt" />
			</g>
		</g>
	</g>
</svg>

<?xml version="1.0" encoding="UTF-8" standalone="no"?>
<!DOCTYPE svg PUBLIC "-//W3C//DTD SVG 1.1//EN" "http://www.w3.org/Graphics/SVG/1.1/DTD/svg11.dtd">
<!-- Generated by Microsoft Visio, SVG Export O365 - List.svg Page-1 -->
<svg xmlns="http://www.w3.org/2000/svg" xmlns:xlink="http://www.w3.org/1999/xlink" xmlns:ev="http://www.w3.org/2001/xml-events"
		width="1.31865in" height="1.52547in" viewBox="0 0 94.9429 109.834" xml:space="preserve" color-interpolation-filters="sRGB"
		class="st7">
	<style type="text/css">
	<![CDATA[
		.st1 {fill:#fee200;stroke:none;stroke-linecap:butt;stroke-width:19.125}
		.st2 {fill:url(#grad0-7);stroke:none;stroke-linecap:butt;stroke-width:19.125}
		.st3 {fill:url(#grad0-11);stroke:none;stroke-linecap:butt;stroke-width:19.125}
		.st4 {fill:url(#grad0-15);stroke:none;stroke-linecap:butt;stroke-width:19.125}
		.st5 {fill:url(#grad0-19);stroke:none;stroke-linecap:butt;stroke-width:19.125}
		.st6 {fill:url(#grad0-23);stroke:none;stroke-linecap:butt;stroke-width:19.125}
		.st7 {fill:none;fill-rule:evenodd;font-size:12px;overflow:visible;stroke-linecap:square;stroke-miterlimit:3}
	]]>
	</style>

	<defs id="Patterns_And_Gradients">
		<linearGradient id="grad0-7" x1="0" y1="0" x2="1" y2="0" gradientTransform="rotate(-90 0.5 0.5)">
			<stop offset="0" stop-color="#e25a01" stop-opacity="1"/>
			<stop offset="0.61" stop-color="#e15801" stop-opacity="1"/>
			<stop offset="0.88" stop-color="#e05101" stop-opacity="1"/>
			<stop offset="1" stop-color="#de4a01" stop-opacity="1"/>
		</linearGradient>
		<linearGradient id="grad0-11" x1="0" y1="0" x2="1" y2="0" gradientTransform="rotate(-90 0.5 0.5)">
			<stop offset="0" stop-color="#f18c0a" stop-opacity="1"/>
			<stop offset="0.435" stop-color="#f0880a" stop-opacity="1"/>
			<stop offset="0.87" stop-color="#ec7c0a" stop-opacity="1"/>
			<stop offset="1" stop-color="#eb770a" stop-opacity="1"/>
		</linearGradient>
		<linearGradient id="grad0-15" x1="0" y1="0" x2="1" y2="0" gradientTransform="rotate(-90 0.5 0.5)">
			<stop offset="0" stop-color="#d83b01" stop-opacity="1"/>
			<stop offset="0.47" stop-color="#d63701" stop-opacity="1"/>
			<stop offset="0.935" stop-color="#ce2b01" stop-opacity="1"/>
			<stop offset="1" stop-color="#cd2901" stop-opacity="1"/>
		</linearGradient>
		<linearGradient id="grad0-19" x1="0" y1="0" x2="1" y2="0" gradientTransform="rotate(-90 0.5 0.5)">
			<stop offset="0" stop-color="#bf3207" stop-opacity="1"/>
			<stop offset="0.47" stop-color="#bb3207" stop-opacity="1"/>
			<stop offset="0.935" stop-color="#af3007" stop-opacity="1"/>
			<stop offset="1" stop-color="#ad3007" stop-opacity="1"/>
		</linearGradient>
		<linearGradient id="grad0-23" x1="0" y1="0" x2="1" y2="0" gradientTransform="rotate(-90 0.5 0.5)">
			<stop offset="0" stop-color="#854a81" stop-opacity="1"/>
			<stop offset="0.48" stop-color="#82497e" stop-opacity="1"/>
			<stop offset="0.81" stop-color="#794475" stop-opacity="1"/>
			<stop offset="1" stop-color="#703f6c" stop-opacity="1"/>
		</linearGradient>
	</defs>
	<g>
		<title>Page-1</title>
		<g id="group20420-1" transform="translate(19.125,-34.0157)">
			<title>O365 - List.20420</title>
			<g id="shape20421-2" transform="translate(0,-36.023)">
				<title>Sheet.20421</title>
				<path d="M0 103.34 L14.17 89.16 L54.44 89.16 C55.69 89.16 56.69 90.17 56.69 91.42 L56.69 103.34 L28.35 109.83 L0
							 103.34 Z" class="st1"/>
			</g>
			<g id="shape20422-4" transform="translate(0,-21.5132)">
				<title>Sheet.20422</title>
				<path d="M17.55 102.58 L0 109.83 L0 88.83 L14.17 88.83 L17.55 102.58 Z" class="st2"/>
			</g>
			<g id="shape20423-8" transform="translate(14.1732,-24.5498)">
				<title>Sheet.20423</title>
				<path d="M42.52 106.21 L42.52 91.86 L0 91.86 L0 106.37 L19.32 109.83 L42.52 106.21 Z" class="st3"/>
			</g>
			<g id="shape20424-12" transform="translate(11.0516,-11.4732)">
				<title>Sheet.20424</title>
				<path d="M45.64 107.13 L45.64 92.96 L0 92.96 L0 107.22 L28.09 109.83 L45.64 107.13 Z" class="st4"/>
			</g>
			<g id="shape20425-16" transform="translate(0,-9.44823)">
				<title>Sheet.20425</title>
				<path d="M14.17 105.11 L0 109.83 L0 90.94 L14.17 90.94 L14.17 105.11 Z" class="st5"/>
			</g>
			<g id="shape20426-20" transform="translate(11.9799,0)">
				<title>Sheet.20426</title>
				<path d="M2.19 95.66 L0 102.41 L2.19 109.83 L30.54 109.83 L44.71 95.66 L2.19 95.66 Z" class="st6"/>
			</g>
		</g>
	</g>
</svg>
